src/topics/icons/siphon.svg

<svg height="256" preserveAspectRatio="xMidYMid" viewBox="0 0 256 256" width="256" xmlns="http://www.w3.org/2000/svg"><path d="m0 256h129v-128h-129z" fill="#4c728c"/><path d="m128 129h128v-129h-128z" fill="#6296ba"/><path d="m128 256h128v-128h-128z" fill="#5884a3"/></svg>

<?xml version="1.0" encoding="UTF-8" standalone="no"?>
<svg width="256px" height="256px" viewBox="0 0 256 256" version="1.1" xmlns="http://www.w3.org/2000/svg" xmlns:xlink="http://www.w3.org/1999/xlink" preserveAspectRatio="xMidYMid">
  <g>
      <path d="M0,256 L129,256 L129,128 L0,128 L0,256 L0,256 Z" fill="#4C728C"></path>
      <path d="M128,129 L256,129 L256,0 L128,0 L128,129 L128,129 Z" fill="#6296BA"></path>
      <path d="M128,256 L256,256 L256,128 L128,128 L128,256 L128,256 Z" fill="#5884A3"></path>
  </g>
</svg>
